libs/ui/packages/crypto-icons/src/svg/BCD.svg

<svg width="24" height="24" viewBox="0 0 24 24" fill="none">
<path d="M16.9387 6.8955L16.9965 7.02375L14.706 8.07525L15.7365 11.4878L19.1273 9.7755L19.1722 9.86475L19.1857 9.84825L16.989 6.91875L16.9387 6.8955ZM16.815 6.83775L14.7352 5.87025H9.357L7.1355 6.89025L9.4455 7.86225H14.583L16.815 6.83775ZM6.9495 7.07775L4.86975 9.7785L8.25525 11.4885L9.29025 8.0625L6.9495 7.07775ZM9.5295 8.1075L8.46075 11.6475L11.9955 17.8965L15.531 11.6475L14.4615 8.1075H9.5295ZM18.9135 10.1573L15.75 11.7555L12.5963 17.3302L18.9135 10.1573ZM11.3782 17.3002L8.24175 11.7555L5.09475 10.1663L11.3782 17.3002ZM4.82325 9.85725L4.848 9.807L4.81575 9.849L4.82325 9.85725ZM6.9165 6.7215L9.30375 5.625H14.7877L17.1458 6.7215L19.5 9.861L12 18.375L4.5 9.8595L6.9165 6.7215ZM13.8173 10.7505C13.8615 11.2057 13.6733 11.4795 13.3717 11.6348C13.8675 11.7548 14.178 12.0532 14.1165 12.7222C14.0415 13.5517 13.4303 13.7738 12.5573 13.8248V14.697H12.0383V13.8368C11.9033 13.8368 11.766 13.8353 11.6235 13.8323V14.697H11.1053V13.8225C10.9838 13.8218 10.86 13.8195 10.734 13.8195H10.059L10.1617 13.1918C10.1617 13.1918 10.5458 13.1978 10.539 13.1918C10.686 13.1918 10.725 13.0845 10.734 13.0178V11.64H10.7895C10.7711 11.6375 10.7526 11.6362 10.734 11.6362V10.653C10.7145 10.5458 10.6462 10.4227 10.4355 10.422C10.4422 10.4145 10.059 10.422 10.059 10.422V9.861H10.7745V9.864C10.8825 9.864 10.992 9.86175 11.1045 9.8595V8.99625H11.6242V9.843C11.7622 9.84 11.9018 9.837 12.0383 9.837V8.997L12.5573 8.99625V9.8595C13.2277 9.9195 13.758 10.128 13.8173 10.7505ZM13.0912 12.618C13.0912 11.937 11.988 12.0397 11.6363 12.0397V13.197C11.988 13.197 13.0912 13.2705 13.0912 12.618ZM12.8497 10.9853C12.8497 10.3658 11.9288 10.4602 11.6363 10.4602V11.5103C11.9288 11.5103 12.8497 11.5793 12.8497 10.9853Z" fill="#FCC339"/>
</svg>

<svg width="24" height="24" viewBox="0 0 24 24" fill="none"><path fill="#fcc339" d="m16.939 6.896.058.128-2.291 1.051 1.03 3.413 3.391-1.713.045.09.014-.017-2.197-2.93zm-.124-.058-2.08-.968H9.357L7.136 6.89l2.31.972h5.137zm-9.865.24-2.08 2.7 3.385 1.71L9.29 8.064zm2.58 1.03-1.07 3.54 3.535 6.249 3.536-6.25-1.07-3.54zm9.384 2.05-3.164 1.598-3.154 5.574zM11.378 17.3l-3.136-5.545-3.147-1.589zM4.823 9.857l.025-.05-.032.042zm2.093-3.135 2.388-1.097h5.484l2.358 1.096 2.354 3.14-7.5 8.514L4.5 9.86zm6.901 4.029c.044.455-.144.729-.445.884.495.12.806.418.745 1.087-.076.83-.687 1.052-1.56 1.103v.872h-.519v-.86q-.202 0-.415-.005v.865h-.518v-.874q-.182-.003-.371-.004h-.675l.103-.627s.384.006.377 0c.147 0 .186-.107.195-.174V11.64h.056l-.056-.004v-.983c-.02-.107-.088-.23-.299-.231.007-.008-.376 0-.376 0v-.561h.716v.003q.16 0 .33-.005v-.863h.52v.847q.207-.005.413-.006v-.84h.52v.863c.67.06 1.2.268 1.26.89m-.726 1.867c0-.681-1.103-.578-1.455-.578v1.157c.352 0 1.455.074 1.455-.579m-.241-1.633c0-.62-.921-.525-1.214-.525v1.05c.293 0 1.214.07 1.214-.525"/></svg>
